icon-svg/std-floodlight.svg

<svg xmlns="http://www.w3.org/2000/svg" fill="#44739e" viewBox="0 0 24 24"><path d="m19.781 12.531-2.359-8.75a1.83 1.83 0 0 0-.994-1.181l-.873-.409a1.964 1.964 0 0 0-.84-.191 1.1 1.1 0 0 0-.154.007l-.885.071a2.07 2.07 0 0 0-.645.16L4.487 5.987a.523.523 0 0 0-.293.587L6.608 16.9a.656.656 0 0 0 .639.513.57.57 0 0 0 .187-.028l3.4-1.026 1.536-.017-.082.124a1.5 1.5 0 0 0 .4 2.093l.059.04-.034.062a1.16 1.16 0 0 0-.14.56V22h3.514v-.22l-.031-2.554a1.263 1.263 0 0 0-.416-.919l-.064-.06.067-.057a.708.708 0 0 0 .272-.459v-.015a3.2 3.2 0 0 0 .022-.386 2.19 2.19 0 0 0-.653-1.555 1.34 1.34 0 0 0-.16-.153l-.112-.094 1.522-.458v-.44l2.493-.756a1.106 1.106 0 0 0 .754-1.343m-.774 1.211-2.594.785v.441l-1.454.432v.259a2.4 2.4 0 0 1 .236.216 2.126 2.126 0 0 1 .613 1.462 2.4 2.4 0 0 1-.025.375.738.738 0 0 1-.466.526 1.212 1.212 0 0 1 .593 1l.033 2.633h-3.232v-2.638a1.094 1.094 0 0 1 .239-.676 1.369 1.369 0 0 1 .106-2.525v-.067l-.824.241-1.428.016L7.4 17.248a.41.41 0 0 1-.148.019.531.531 0 0 1-.509-.4L4.324 6.538a.372.372 0 0 1 .22-.428l8.544-3.742a1.91 1.91 0 0 1 .6-.148l.88-.07a.8.8 0 0 1 .148-.009 1.87 1.87 0 0 1 .788.173l.873.409a1.708 1.708 0 0 1 .923 1.1l2.359 8.75a.964.964 0 0 1-.652 1.169m-3.82 4.612-.028-.028-.059-.026-.1-.049.076-.076a.09.09 0 0 1 .064-.03 1.97 1.97 0 0 0-.822-.176 1.82 1.82 0 0 0-1.259.47l.04.016.111.041-.08.086a.962.962 0 0 0-.27.655v2.476h2.915l-.03-2.475a1.069 1.069 0 0 0-.559-.888Zm-.916 3.2a.3.3 0 1 1 .3-.3.3.3 0 0 1-.3.303zM14.715 2.3a.76.76 0 0 0-.128.007l-.887.071a1.74 1.74 0 0 0-.549.135L4.605 6.254a.213.213 0 0 0-.127.249l2.413 10.33a.372.372 0 0 0 .356.277.29.29 0 0 0 .1-.01l3.437-1.035h.011l1.428-.015 1-.294v.391l-.055.017a1.1 1.1 0 0 0-.139.055 2.662 2.662 0 0 0 .3 1.91 2.03 2.03 0 0 1 1.008-.258 2.08 2.08 0 0 1 .524.066 2.612 2.612 0 0 1-.052-2.361v-.085c-.024-.007-.056-.017-.1-.026l-.29-.067 1.841-.548v-.44l1.692-.512L14.843 2.3zm1.262 7.489-.086.032-9.112 3.419-.1.039-.024-.11-1.487-5.943-.024-.079.071-.031L14.075 3l.11-.047.039.11 1.73 6.637zm1.17-5.929a1.552 1.552 0 0 0-.838-.995l-.872-.409a1.7 1.7 0 0 0-.485-.14l3.094 11.552.915-.277a.806.806 0 0 0 .545-.981zm-3.924 14.326a2.14 2.14 0 0 1-.3-.717 3.07 3.07 0 0 1-.031-1.187 1.212 1.212 0 0 0 .078 2.111 1.57 1.57 0 0 1 .253-.207m1.609-2.419a2.4 2.4 0 0 0 .195 2.223 1.8 1.8 0 0 1 .233.1.586.586 0 0 0 .368-.4 2.5 2.5 0 0 0 .023-.349 1.972 1.972 0 0 0-.567-1.352 1.6 1.6 0 0 0-.234-.211z"/></svg>

<?xml version="1.0" encoding="UTF-8"?>
<svg width="24px" fill="#44739e" height="24px" viewBox="0 0 24 24" version="1.1" xmlns="http://www.w3.org/2000/svg" xmlns:xlink="http://www.w3.org/1999/xlink">
            <path d="M 19.781,12.531 17.422,3.781 A 1.83,1.83 0 0 0 16.428,2.6 L 15.555,2.191 A 1.964,1.964 0 0 0 14.715,2 1.105,1.105 0 0 0 14.561,2.007 l -0.885,0.071 a 2.07,2.07 0 0 0 -0.645,0.16 L 4.487,5.987 A 0.523,0.523 0 0 0 4.194,6.574 L 6.608,16.9 a 0.656,0.656 0 0 0 0.639,0.513 0.57,0.57 0 0 0 0.187,-0.028 l 3.4,-1.026 1.536,-0.017 -0.082,0.124 a 1.5,1.5 0 0 0 0.4,2.093 l 0.059,0.04 -0.034,0.062 a 1.16,1.16 0 0 0 -0.14,0.56 V 22 h 3.514 V 21.78 L 16.056,19.226 A 1.263,1.263 0 0 0 15.64,18.307 l -0.064,-0.06 0.067,-0.057 a 0.708,0.708 0 0 0 0.272,-0.459 v 0 -0.015 a 3.194,3.194 0 0 0 0.022,-0.386 2.191,2.191 0 0 0 -0.653,-1.555 1.343,1.343 0 0 0 -0.16,-0.153 l -0.112,-0.094 1.522,-0.458 v -0.44 l 2.493,-0.756 a 1.106,1.106 0 0 0 0.754,-1.343 z m -0.774,1.211 -2.594,0.785 v 0.441 L 14.959,15.4 v 0.259 a 2.4,2.4 0 0 1 0.236,0.216 2.126,2.126 0 0 1 0.613,1.462 2.424,2.424 0 0 1 -0.025,0.375 0.738,0.738 0 0 1 -0.466,0.526 1.212,1.212 0 0 1 0.593,1 l 0.033,2.633 h -3.232 v -2.638 a 1.094,1.094 0 0 1 0.239,-0.676 1.369,1.369 0 0 1 0.106,-2.525 v -0.067 l -0.824,0.241 -1.428,0.016 -3.404,1.026 a 0.408,0.408 0 0 1 -0.148,0.019 0.531,0.531 0 0 1 -0.509,-0.4 L 4.324,6.538 A 0.372,0.372 0 0 1 4.544,6.11 l 8.544,-3.742 a 1.909,1.909 0 0 1 0.6,-0.148 l 0.88,-0.07 a 0.807,0.807 0 0 1 0.148,-0.009 1.873,1.873 0 0 1 0.788,0.173 l 0.873,0.409 a 1.708,1.708 0 0 1 0.923,1.1 l 2.359,8.75 a 0.964,0.964 0 0 1 -0.652,1.169 z M 15.187,18.354 15.159,18.326 15.1,18.3 15,18.251 15.076,18.175 a 0.089,0.089 0 0 1 0.064,-0.03 1.966,1.966 0 0 0 -0.822,-0.176 1.82,1.82 0 0 0 -1.259,0.47 l 0.04,0.016 0.111,0.041 -0.08,0.086 a 0.962,0.962 0 0 0 -0.27,0.655 v 2.476 h 2.915 l -0.03,-2.475 A 1.069,1.069 0 0 0 15.186,18.35 Z m -0.916,3.2 a 0.3,0.3 0 1 1 0.3,-0.3 0.3,0.3 0 0 1 -0.3,0.303 z M 14.715,2.3 A 0.755,0.755 0 0 0 14.587,2.307 L 13.7,2.378 A 1.735,1.735 0 0 0 13.151,2.513 L 4.605,6.254 A 0.213,0.213 0 0 0 4.478,6.503 l 2.413,10.33 a 0.372,0.372 0 0 0 0.356,0.277 0.289,0.289 0 0 0 0.1,-0.01 l 3.437,-1.035 h 0.011 l 1.428,-0.015 1,-0.294 v 0.391 l -0.055,0.017 a 1.116,1.116 0 0 0 -0.139,0.055 2.662,2.662 0 0 0 0.3,1.91 2.03,2.03 0 0 1 1.008,-0.258 2.084,2.084 0 0 1 0.524,0.066 2.612,2.612 0 0 1 -0.052,-2.361 v 0 -0.085 c -0.024,-0.007 -0.056,-0.017 -0.1,-0.026 L 14.419,15.398 16.26,14.85 V 14.41 L 17.952,13.898 14.843,2.3 c -0.043,0 -0.085,0 -0.128,0 z M 15.977,9.789 15.891,9.821 6.779,13.24 6.679,13.279 6.655,13.169 5.168,7.226 5.144,7.147 5.215,7.116 14.075,3 l 0.11,-0.047 0.039,0.11 1.73,6.637 z M 17.147,3.86 A 1.552,1.552 0 0 0 16.309,2.865 L 15.437,2.456 a 1.7,1.7 0 0 0 -0.485,-0.14 l 3.094,11.552 0.915,-0.277 a 0.806,0.806 0 0 0 0.545,-0.981 z m -3.924,14.326 a 2.138,2.138 0 0 1 -0.3,-0.717 3.07,3.07 0 0 1 -0.031,-1.187 1.212,1.212 0 0 0 0.078,2.111 1.573,1.573 0 0 1 0.253,-0.207 z m 1.609,-2.419 a 2.4,2.4 0 0 0 0.195,2.223 1.8,1.8 0 0 1 0.233,0.1 0.586,0.586 0 0 0 0.368,-0.4 2.5,2.5 0 0 0 0.023,-0.349 1.972,1.972 0 0 0 -0.567,-1.352 1.607,1.607 0 0 0 -0.234,-0.211 z"/>

</svg>
